images_sukapura_svg/cmd/sc_fontdialog.svg

<svg viewBox="0 0 16 16" xmlns="http://www.w3.org/2000/svg" xmlns:xlink="http://www.w3.org/1999/xlink"><linearGradient id="a" gradientUnits="userSpaceOnUse" x1="10" x2="10" y1="16" y2="-2"><stop offset="0" stop-color="#f7f7f7"/><stop offset=".22222222" stop-color="#fff"/><stop offset=".83333331" stop-color="#fff"/><stop offset="1" stop-color="#f7f7f7"/></linearGradient><linearGradient id="b" gradientTransform="matrix(1 0 0 .53846154 -6 5.307692)" gradientUnits="userSpaceOnUse" x1="12" x2="12" y1="18" y2="5"><stop offset="0" stop-color="#cfcfcf"/><stop offset=".15476191" stop-color="#e7e7e7"/><stop offset=".15476191" stop-color="#fff"/><stop offset=".5" stop-color="#f3f3f3"/><stop offset=".85714287" stop-color="#f9f9f9"/><stop offset=".85714287" stop-color="#fcfcfc"/><stop offset="1" stop-color="#fff"/></linearGradient><linearGradient id="c" gradientTransform="matrix(1 0 0 .39999999 -6 6.7)" gradientUnits="userSpaceOnUse" x1="12" x2="12" y1="12" y2="18.250002"><stop offset="0" stop-color="#f8f8f8"/><stop offset="1" stop-color="#fff"/></linearGradient>

/&amp;amp;gt;<path d="m11.018238 11.224016h-5.7772355l-1.3069811 3.551579h-1.9036463l5.3321039-13.78959755h1.6005782l5.2468658 13.78959755h-1.903646zm-5.199512-1.562695h4.64073l-2.2730107-6.2791916h-.0568253z" fill="#4b4b4f" transform="scale(.98503967 1.0151875)"/><path d="m9 6v.0976562l1.302734 3.7109376h-1.302734v1.5859372h1.853516l1.146484 3.25586v-2.650391h.890625l-2.216797-6z" fill="#fff" fill-opacity=".784314"/><g transform="translate(8)"><path d="m2 8h6v8h-6z" fill="url(#a)"/><path d="m2 7h6v9h-6z" fill="#626262" stroke-width=".774597"/><path d="m3 8h4v7h-4z" fill="url(#b)" stroke-width=".733799"/><path d="m4 9h2v2.5h-2z" fill="#dadada" stroke-width=".912871"/><path d="m4 11.5h2v2.5h-2z" fill="url(#c)" stroke-width=".632456"/></g></svg>

<?xml version="1.0" encoding="UTF-8" standalone="no"?>
<svg
   xmlns:dc="http://purl.org/dc/elements/1.1/"
   xmlns:cc="http://creativecommons.org/ns#"
   xmlns:rdf="http://www.w3.org/1999/02/22-rdf-syntax-ns#"
   xmlns:svg="http://www.w3.org/2000/svg"
   xmlns="http://www.w3.org/2000/svg"
   xmlns:sodipodi="http://sodipodi.sourceforge.net/DTD/sodipodi-0.dtd"
   xmlns:inkscape="http://www.inkscape.org/namespaces/inkscape"
   viewBox="0 0 16 16"
   version="1.1"
   id="svg4"
   sodipodi:docname="sc_fontdialog.svg"
   inkscape:version="0.92.3 (2405546, 2018-03-11)"><metadata
   id="metadata10">
  <rdf:RDF>
    <cc:Work
       rdf:about="">
      <dc:format>image/svg+xml</dc:format>
      <dc:type
         rdf:resource="http://purl.org/dc/dcmitype/StillImage" />
      <dc:title></dc:title>
    </cc:Work>
  </rdf:RDF>
</metadata>
<defs
   id="defs8">
  <linearGradient
     id="a"
     gradientUnits="userSpaceOnUse"
     x1="10"
     x2="10"
     y1="16"
     y2="-2">
    <stop
       offset="0"
       stop-color="#f7f7f7"
       id="stop5125" />
    <stop
       offset=".22222222"
       stop-color="#fff"
       id="stop5127" />
    <stop
       offset=".83333331"
       stop-color="#fff"
       id="stop5129" />
    <stop
       offset="1"
       stop-color="#f7f7f7"
       id="stop5131" />
  </linearGradient>
  <linearGradient
     id="b"
     gradientTransform="matrix(1,0,0,0.53846154,-6,5.307692)"
     gradientUnits="userSpaceOnUse"
     x1="12"
     x2="12"
     y1="18"
     y2="5">
    <stop
       offset="0"
       stop-color="#cfcfcf"
       id="stop5134" />
    <stop
       offset=".15476191"
       stop-color="#e7e7e7"
       id="stop5136" />
    <stop
       offset=".15476191"
       stop-color="#fff"
       id="stop5138" />
    <stop
       offset=".5"
       stop-color="#f3f3f3"
       id="stop5140" />
    <stop
       offset=".85714287"
       stop-color="#f9f9f9"
       id="stop5142" />
    <stop
       offset=".85714287"
       stop-color="#fcfcfc"
       id="stop5144" />
    <stop
       offset="1"
       stop-color="#fff"
       id="stop5146" />
  </linearGradient>
  <linearGradient
     id="c"
     gradientTransform="matrix(1,0,0,0.39999999,-6,6.7)"
     gradientUnits="userSpaceOnUse"
     x1="12"
     x2="12"
     y1="12"
     y2="18.250002">
    <stop
       offset="0"
       stop-color="#f8f8f8"
       id="stop5149" />
    <stop
       offset="1"
       stop-color="#fff"
       id="stop5151" />
  </linearGradient>
</defs>
<sodipodi:namedview
   pagecolor="#ffffff"
   bordercolor="#666666"
   borderopacity="1"
   objecttolerance="10"
   gridtolerance="10"
   guidetolerance="10"
   inkscape:pageopacity="0"
   inkscape:pageshadow="2"
   inkscape:window-width="1366"
   inkscape:window-height="716"
   id="namedview6"
   showgrid="true"
   inkscape:zoom="22.627418"
   inkscape:cx="6.8614775"
   inkscape:cy="6.5480527"
   inkscape:window-x="-8"
   inkscape:window-y="-8"
   inkscape:window-maximized="1"
   inkscape:current-layer="svg4">
  <inkscape:grid
     type="xygrid"
     id="grid817" />
</sodipodi:namedview>

/&amp;gt;<g
   aria-label="A"
   transform="scale(0.98503967,1.0151875)"
   style="font-style:normal;font-weight:normal;font-size:19.39635658px;line-height:1.25;font-family:sans-serif;letter-spacing:0px;word-spacing:0px;fill:#000000;fill-opacity:1;stroke:none;stroke-width:0.48490888"
   id="text821">
  <path
     d="M 11.018238,11.224016 H 5.2410025 L 3.9340214,14.775595 H 2.0303751 L 7.362479,0.98599745 H 8.9630572 L 14.209923,14.775595 H 12.306277 Z M 5.818726,9.661321 h 4.64073 L 8.1864453,3.3821294 H 8.12962 Z"
     style="font-style:normal;font-variant:normal;font-weight:normal;font-stretch:normal;font-family:Roboto;-inkscape-font-specification:Roboto;stroke-width:0.48490888;fill:#4b4b4f;fill-opacity:1"
     id="path823" />
</g>
<path
   style="fill:#ffffff;fill-opacity:0.78431396"
   d="M 9 6 L 9 6.0976562 L 10.302734 9.8085938 L 9 9.8085938 L 9 11.394531 L 10.853516 11.394531 L 12 14.650391 L 12 12 L 12.890625 12 L 10.673828 6 L 9 6 z "
   id="path5174" />
<g
   transform="translate(8)"
   id="g5186">
  <path
     style="fill:url(#a)"
     inkscape:connector-curvature="0"
     d="m 2,8 h 6 v 8 H 2 Z"
     id="path5176" />
  <path
     style="fill:#626262;stroke-width:0.77459699"
     inkscape:connector-curvature="0"
     d="m 2,7 h 6 v 9 H 2 Z"
     id="path5178" />
  <path
     style="fill:url(#b);stroke-width:0.73379898"
     inkscape:connector-curvature="0"
     d="m 3,8 h 4 v 7 H 3 Z"
     id="path5180" />
  <path
     style="fill:#dadada;stroke-width:0.912871"
     inkscape:connector-curvature="0"
     d="m 4,9 h 2 v 2.5 H 4 Z"
     id="path5182" />
  <path
     style="fill:url(#c);stroke-width:0.632456"
     inkscape:connector-curvature="0"
     d="M 4,11.5 H 6 V 14 H 4 Z"
     id="path5184" />
</g>
</svg>
